X:1
T:He’ll Come for Me
T:He’ll Come for Me
T:C. W. James
T:Johnson Oatman, Jr., 1903
T:Public Domain Courtesy of the Cyber Hymnal™
T:Public Domain Courtesy of the Cyber Hymnal™
C:C. W. James
Z:Public Domain
Z:Courtesy of the Cyber Hymnal™
%%score ( 1 2 ) ( 3 4 )
L:1/8
Q:1/4=90
M:3/4
K:F
V:1 treble 
V:2 treble 
V:3 bass 
V:4 bass 
V:1
 [CA][CA] [CA] | [CA]3 [A,F] [G,E][B,G] | [A,F]3 [A,F] [G,E][A,F] | [DB]3 [_DB] [DB][CA] | %4
w: 1.~Soon I will|hear my Lord say,|“Come,” To dwell with|Him in yon- der|
w: 2.~What tho’ the|way is all un-|known, Yet I will|not be all a-|
w: 3.~T’ward that fair|man- sion in the|skies, I oft- en|look with long- ing|
w: 4.~I want to|do for God my|best, Be- fore I|en- ter in- to|
 [CA]3 [CA] [CA][B,G] | [A,F]3 [A,F] [B,G][CA] | [DB]3 [Fd] [Ec][DB] | [CA]3 [A,F] [B,G][CA] | %8
w: home, And when life’s|day- light fades a-|way, He’ll come for|me at close of|
w: lone; My Sav- ior|will point out the|way, And come for|me at close of|
w: eyes; But tho’ God|wills me now to|stay, He’ll come for|me at close of|
w: rest; Then when I|leave this house of|clay, He’ll come for|me at close of|
 !fermata![A,F]3 ||[M:4/4]"^Refrain" AAA | (z [CA])FE G x3 | z [DF]cc c x3 | %12
w: day.||||
w: day.|He’ll come for|* me, He’ll come|* for me, To|
w: day.||||
w: day.||||
 z [Ec][EG][FA] [GB] x3 | A4- [FA]fff | z [Af]cB A x3 | z [Bd][df][ce] [Bd] x3 | %16
w: ||||
w: * spend with Him|* e- ter- ni- ty;|* * If here|* I love Him|
w: ||||
w: ||||
 [Ac]4- [Ac]F[EG][EA] | F4- [CF] |] %18
w: ||
w: * * and o- bey,|He’ll come|
w: ||
w: ||
V:2
 x3 | x6 | x6 | x6 | x6 | x6 | x6 | x6 | x3 ||[M:4/4] x3 | A4- ^C C C x | F4- D F E x | %12
 c4- G G F x | F F F F x4 | f4- A A A x | d4- B B B x | x5 F x2 | F2 E D x |] %18
V:3
 z3 | (F,C, F,,) z3 | (F,C, F,,) z3 | F,2 z3 x | (F,C, F,,)[C,,E,] [C,,E,][^C,,^E,] | %5
w: |~ * *|~ * *|~|~ * * ~ ~ ~|
 [D,,D,]3 [C,,C,] [B,,,B,,][A,,,A,,] | [G,,,G,,]3 [G,,,G,,] [A,,,A,,][B,,,B,,] | %7
w: ~ ~ ~ ~|~ ~ ~ ~|
 [C,,C,]3 [C,,C,] [C,,C,][C,,C,] | !fermata!C,2 !fermata!F, ||[M:4/4] z3 | %10
w: ~ ~ ~ ~|~ ~||
 z [A,,E,][A,,E,][A,,E,] [A,,E,] z3 | z [D,F,][D,A,][D,G,] [D,F,] z3 | %12
w: He’ll come for me,|He’ll come for me,|
 z [C,B,][C,B,][C,A,] [C,G,][C,C][C,C][C,C] | [F,C][F,C][F,C][F,C] [F,C] z3 | %14
w: To spend with Him e- ter- ni-|ty, e- ter- ni- ty|
 z [F,C][F,C][F,C] [F,C] z3 | z [B,,F][B,,F][B,,F] [B,,F] z3 | %16
w: If here I love,|love and o- bey|
 z [B,,F][B,,F][B,,F] [B,,F][D,A,][C,B,][C,C] | A,DCB, [F,,F,A,] |] %18
w: He’ll come for me, ~ ~ ~|~ at close of day.|
V:4
 x3 | F,,3 x3 | F,,3 x3 | (B,,A,, G,,) x3 | F,,3 x3 | x6 | x6 | x6 | F,,3 ||[M:4/4] x3 | x8 | x8 | %12
 x8 | x8 | x8 | x8 | x8 | [F,,F,]4- x |] %18

